;FLAVOR:Marlin
;TIME:5752
;Filament used: 3.80815m
;Layer height: 0.2
;MINX:104.7
;MINY:88.9
;MINZ:0.2
;MAXX:195.3
;MAXY:211.1
;MAXZ:10
;Generated with Cura_SteamEngine 5.4.0
M140 S50
M105
M190 S50
M104 S200
M105
M109 S200
M82 ;absolute extrusion mode
M201 X500.00 Y500.00 Z100.00 E5000.00 ;Setup machine max acceleration
M203 X500.00 Y500.00 Z10.00 E50.00 ;Setup machine max feedrate
M204 P500.00 R1000.00 T500.00 ;Setup Print/Retract/Travel acceleration
M205 X8.00 Y8.00 Z0.40 E5.00 ;Setup Jerk
M220 S100 ;Reset Feedrate
M221 S100 ;Reset Flowrate

G28 ;Home

G92 E0 ;Reset Extruder
G1 Z2.0 F3000 ;Move Z Axis up
G1 X10.1 Y20 Z0.28 F5000.0 ;Move to start position
G1 X10.1 Y200.0 Z0.28 F1500.0 E15 ;Draw the first line
G1 X10.4 Y200.0 Z0.28 F5000.0 ;Move to side a little
G1 X10.4 Y20 Z0.28 F1500.0 E30 ;Draw the second line
G92 E0 ;Reset Extruder
G1 Z2.0 F3000 ;Move Z Axis up

G92 E0
G92 E0
G1 F2700 E-5
;LAYER_COUNT:50
;LAYER:0
M107
G0 F6000 X106.219 Y91.923 Z0.2
;TYPE:SKIRT
G1 F2700 E0
G1 F1200 X107.78 Y90.464 E0.07107
G1 X109.803 Y89.257 E0.14942
G1 X111.521 Y88.975 E0.20732
G1 X188.353 Y88.9 E2.76277
G1 X190.249 Y89.366 E2.82771
G1 X192.277 Y90.419 E2.90371
G1 X193.736 Y91.98 E2.97477
G1 X194.943 Y94.003 E3.05312
G1 X195.225 Y95.721 E3.11103
G1 X195.3 Y152.553 E5.00127
G1 X194.834 Y154.449 E5.06621
G1 X193.781 Y156.477 E5.14221
G1 X192.223 Y157.933 E5.21314
G1 X190.685 Y158.851 E5.27271
G1 X190.731 Y204.153 E6.77946
G1 X190.265 Y206.049 E6.8444
G1 X189.212 Y208.077 E6.9204
G1 X187.651 Y209.536 E6.99147
G1 X185.628 Y210.743 E7.06982
G1 X183.91 Y211.025 E7.12773
G1 X112.078 Y211.1 E9.51687
G1 X110.182 Y210.634 E9.58181
G1 X108.154 Y209.581 E9.65781
G1 X106.695 Y208.02 E9.72887
G1 X105.488 Y205.997 E9.80723
G1 X105.206 Y204.279 E9.86513
G1 X105.131 Y157.447 E11.42277
G1 X105.585 Y155.599 E11.48606
G1 X105.667 Y155.416 E11.49273
G1 X105.057 Y154.395 E11.53229
G1 X104.775 Y152.679 E11.59013
G1 X104.7 Y95.847 E13.48037
G1 X105.166 Y93.951 E13.54531
G1 X106.219 Y91.923 E13.62131
G0 F6000 X106.542 Y92.168
G1 F1200 X108.019 Y90.788 E13.68854
G1 X109.943 Y89.64 E13.76306
G1 X111.586 Y89.37 E13.81844
G1 X188.307 Y89.3 E16.37019
G1 X190.106 Y89.742 E16.43181
G1 X192.032 Y90.742 E16.50399
G1 X193.412 Y92.219 E16.57122
G1 X194.56 Y94.143 E16.64574
G1 X194.83 Y95.786 E16.70112
G1 X194.9 Y152.507 E18.58767
G1 X194.458 Y154.306 E18.64928
G1 X193.458 Y156.232 E18.72146
G1 X191.981 Y157.612 E18.78869
G1 X190.285 Y158.624 E18.85438
G1 X190.331 Y204.107 E20.36715
G1 X189.889 Y205.906 E20.42876
G1 X188.889 Y207.832 E20.50094
G1 X187.412 Y209.212 E20.56817
G1 X185.488 Y210.36 E20.64269
G1 X183.845 Y210.63 E20.69807
G1 X112.124 Y210.7 E23.08352
G1 X110.325 Y210.258 E23.14514
G1 X108.399 Y209.258 E23.21732
G1 X107.019 Y207.781 E23.28455
G1 X105.871 Y205.857 E23.35907
G1 X105.601 Y204.214 E23.41444
G1 X105.531 Y157.493 E24.96839
G1 X105.973 Y155.694 E25.03001
G1 X106.124 Y155.403 E25.04091
G1 X105.44 Y154.257 E25.0853
G1 X105.17 Y152.614 E25.14068
G1 X105.1 Y95.893 E27.02723
G1 X105.542 Y94.094 E27.08884
G1 X106.542 Y92.168 E27.16102
G0 F6000 X106.865 Y92.413
G1 F1200 X108.261 Y91.109 E27.22456
G1 X110.081 Y90.023 E27.29505
G1 X111.651 Y89.765 E27.34797
G1 X188.26 Y89.7 E29.896
G1 X189.964 Y90.119 E29.95436
G1 X191.787 Y91.065 E30.02267
G1 X193.091 Y92.461 E30.08621
G1 X194.177 Y94.281 E30.1567
G1 X194.435 Y95.851 E30.20962
G1 X194.5 Y152.46 E32.09244
G1 X194.081 Y154.164 E32.15081
G1 X193.135 Y155.987 E32.21912
G1 X191.739 Y157.291 E32.28265
G1 X190.053 Y158.297 E32.34795
G1 X189.885 Y158.356 E32.35388
G1 X189.931 Y204.06 E33.874
G1 X189.512 Y205.764 E33.93236
G1 X188.566 Y207.587 E34.00067
G1 X187.17 Y208.891 E34.06421
G1 X185.35 Y209.977 E34.1347
G1 X183.78 Y210.235 E34.18762
G1 X112.171 Y210.3 E36.56934
G1 X110.467 Y209.881 E36.62771
G1 X108.644 Y208.935 E36.69602
G1 X107.34 Y207.539 E36.75956
G1 X106.254 Y205.719 E36.83005
G1 X105.996 Y204.149 E36.88297
G1 X105.931 Y157.54 E38.43319
G1 X106.35 Y155.836 E38.49155
G1 X106.581 Y155.389 E38.50829
G1 X105.823 Y154.119 E38.55748
G1 X105.565 Y152.549 E38.6104
G1 X105.5 Y95.94 E40.49322
G1 X105.919 Y94.236 E40.55159
G1 X106.865 Y92.413 E40.6199
G0 F6000 X107.188 Y92.658
G1 F1200 X108.503 Y91.43 E40.67974
G1 X110.219 Y90.406 E40.7462
G1 X111.716 Y90.16 E40.79666
G1 X188.214 Y90.1 E43.341
G1 X189.821 Y90.495 E43.39604
G1 X191.542 Y91.388 E43.46052
G1 X192.77 Y92.703 E43.52037
G1 X193.794 Y94.419 E43.58683
G1 X194.04 Y95.916 E43.63729
G1 X194.1 Y152.414 E45.51642
G1 X193.705 Y154.021 E45.57146
G1 X192.812 Y155.742 E45.63595
G1 X191.497 Y156.97 E45.69579
G1 X189.848 Y157.954 E45.75966
G1 X189.485 Y158.041 E45.77207
G1 X189.531 Y204.014 E47.30114
G1 X189.136 Y205.621 E47.35618
G1 X188.243 Y207.342 E47.42067
G1 X186.928 Y208.57 E47.48051
G1 X185.212 Y209.594 E47.54698
G1 X183.715 Y209.84 E47.59744
G1 X112.217 Y209.9 E49.97547
G1 X110.61 Y209.505 E50.03051
G1 X108.889 Y208.612 E50.095
G1 X107.661 Y207.297 E50.15484
G1 X106.637 Y205.581 E50.2213
G1 X106.391 Y204.084 E50.27176
G1 X106.331 Y157.586 E51.81829
G1 X106.726 Y155.979 E51.87333
G1 X107.038 Y155.375 E51.89594
G1 X106.206 Y153.981 E51.94994
G1 X105.96 Y152.484 E52.0004
G1 X105.9 Y95.986 E53.87953
G1 X106.295 Y94.379 E53.93457
G1 X107.188 Y92.658 E53.99906
G0 F6000 X107.511 Y92.903
G1 F1200 X108.745 Y91.751 E54.05521
G1 X110.357 Y90.789 E54.11764
G1 X111.781 Y90.555 E54.16564
G1 X188.168 Y90.5 E56.70628
G1 X189.678 Y90.871 E56.758
G1 X191.297 Y91.711 E56.81866
G1 X192.449 Y92.945 E56.87481
G1 X193.411 Y94.557 E56.93725
G1 X193.645 Y95.981 E56.98525
G1 X193.7 Y152.368 E58.86069
G1 X193.329 Y153.878 E58.9124
G1 X192.489 Y155.497 E58.97307
G1 X191.255 Y156.649 E59.02922
G1 X189.643 Y157.611 E59.09165
G1 X189.085 Y157.7 E59.11045
G1 X189.131 Y203.968 E60.64933
G1 X188.76 Y205.478 E60.70104
G1 X187.92 Y207.097 E60.76171
G1 X186.686 Y208.249 E60.81786
G1 X185.074 Y209.211 E60.88029
G1 X183.65 Y209.445 E60.92829
G1 X112.263 Y209.5 E63.30263
G1 X110.753 Y209.129 E63.35435
G1 X109.134 Y208.289 E63.41501
G1 X107.982 Y207.055 E63.47116
G1 X107.02 Y205.443 E63.5336
G1 X106.786 Y204.019 E63.5816
G1 X106.731 Y157.632 E65.12443
G1 X107.102 Y156.122 E65.17615
G1 X107.495 Y155.361 E65.20464
G1 X106.589 Y153.843 E65.26344
G1 X106.355 Y152.419 E65.31143
G1 X106.3 Y96.032 E67.18687
G1 X106.671 Y94.522 E67.23859
G1 X107.511 Y92.903 E67.29925
G0 F6000 X107.834 Y93.148
G1 F1200 X108.987 Y92.072 E67.35171
G1 X110.495 Y91.172 E67.41012
G1 X111.846 Y90.95 E67.45566
G1 X188.121 Y90.9 E69.99257
G1 X189.536 Y91.248 E70.04104
G1 X191.052 Y92.034 E70.09783
G1 X192.128 Y93.187 E70.15029
G1 X193.028 Y94.695 E70.2087
G1 X193.25 Y96.046 E70.25424
G1 X193.3 Y152.321 E72.12595
G1 X192.952 Y153.736 E72.17442
G1 X192.166 Y155.252 E72.23121
G1 X191.013 Y156.328 E72.28367
G1 X189.505 Y157.228 E72.34208
G1 X188.635 Y157.367 E72.37138
G1 X188.686 Y157.711 E72.38295
G1 X188.731 Y203.921 E73.9199
G1 X188.383 Y205.336 E73.96836
G1 X187.597 Y206.852 E74.02516
G1 X186.444 Y207.928 E74.07761
G1 X184.936 Y208.828 E74.13602
G1 X183.585 Y209.05 E74.18156
G1 X112.31 Y209.1 E76.55218
G1 X110.895 Y208.752 E76.60064
G1 X109.379 Y207.966 E76.65744
G1 X108.303 Y206.813 E76.70989
G1 X107.403 Y205.305 E76.7683
G1 X107.181 Y203.954 E76.81384
G1 X107.131 Y157.679 E78.35295
G1 X107.479 Y156.264 E78.40142
G1 X107.968 Y155.317 E78.43687
G1 X107.85 Y155.176 E78.44298
G1 X106.972 Y153.705 E78.49996
G1 X106.75 Y152.354 E78.5455
G1 X106.7 Y96.079 E80.41721
G1 X107.048 Y94.664 E80.46568
G1 X107.834 Y93.148 E80.52248
G0 F6000 X108.157 Y93.393
G1 F1200 X109.229 Y92.393 E80.57123
G1 X110.633 Y91.555 E80.62562
G1 X111.911 Y91.345 E80.66869
G1 X188.075 Y91.3 E83.20192
G1 X189.393 Y91.624 E83.24706
G1 X190.807 Y92.357 E83.30003
G1 X191.807 Y93.429 E83.34879
G1 X192.645 Y94.833 E83.40318
G1 X192.855 Y96.111 E83.44625
G1 X192.9 Y152.275 E85.31428
G1 X192.576 Y153.593 E85.35942
G1 X191.843 Y155.007 E85.41239
G1 X190.771 Y156.007 E85.46115
G1 X189.367 Y156.845 E85.51553
G1 X188.175 Y157.036 E85.55569
G1 X188.286 Y157.711 E85.57844
G1 X188.331 Y203.875 E87.11386
G1 X188.007 Y205.193 E87.159
G1 X187.274 Y206.607 E87.21197
G1 X186.202 Y207.607 E87.26073
G1 X184.798 Y208.445 E87.31512
G1 X183.52 Y208.655 E87.35819
G1 X112.356 Y208.7 E89.72512
G1 X111.038 Y208.376 E89.77026
G1 X109.624 Y207.643 E89.82323
G1 X108.624 Y206.571 E89.87199
G1 X107.786 Y205.167 E89.92638
G1 X107.576 Y203.889 E89.96945
G1 X107.531 Y157.725 E91.50487
G1 X107.855 Y156.407 E91.55002
G1 X108.453 Y155.25 E91.59333
G1 X108.193 Y154.971 E91.60602
G1 X107.355 Y153.567 E91.6604
G1 X107.145 Y152.289 E91.70348
G1 X107.1 Y96.125 E93.5715
G1 X107.424 Y94.807 E93.61664
G1 X108.157 Y93.393 E93.66962
G0 F6000 X108.479 Y93.64
G1 F1200 X109.474 Y92.712 E93.71487
G1 X110.771 Y91.938 E93.76511
G1 X111.976 Y91.74 E93.80572
G1 X188.029 Y91.7 E96.33525
G1 X189.25 Y92 E96.37707
G1 X190.56 Y92.679 E96.42615
G1 X191.488 Y93.674 E96.4714
G1 X192.262 Y94.971 E96.52164
G1 X192.46 Y96.176 E96.56225
G1 X192.5 Y152.229 E98.42658
G1 X192.2 Y153.45 E98.4684
G1 X191.521 Y154.76 E98.51748
G1 X190.526 Y155.688 E98.56273
G1 X189.229 Y156.462 E98.61297
G1 X187.96 Y156.665 E98.65571
G1 X187.709 Y156.671 E98.66406
G1 X187.891 Y157.776 E98.70131
G1 X187.931 Y203.829 E100.23304
G1 X187.631 Y205.05 E100.27486
G1 X186.952 Y206.36 E100.32393
G1 X185.957 Y207.288 E100.36919
G1 X184.66 Y208.062 E100.41942
G1 X183.455 Y208.26 E100.46004
G1 X112.402 Y208.3 E102.82327
G1 X111.181 Y208 E102.86509
G1 X109.871 Y207.321 E102.91417
G1 X108.943 Y206.326 E102.95942
G1 X108.169 Y205.029 E103.00966
G1 X107.971 Y203.824 E103.05027
G1 X107.931 Y157.771 E104.582
G1 X108.231 Y156.55 E104.62382
G1 X108.938 Y155.183 E104.67501
G1 X108.512 Y154.726 E104.69579
G1 X107.738 Y153.429 E104.74602
G1 X107.54 Y152.224 E104.78664
G1 X107.5 Y96.171 E106.65097
G1 X107.8 Y94.95 E106.69279
G1 X108.479 Y93.64 E106.74186
G0 F6000 X108.801 Y93.887
G1 F1200 X109.716 Y93.034 E106.78347
G1 X110.911 Y92.321 E106.82975
G1 X112.041 Y92.135 E106.86784
G1 X187.983 Y92.1 E109.39368
G1 X189.107 Y92.376 E109.43218
G1 X190.313 Y93.001 E109.47736
G1 X191.166 Y93.916 E109.51896
G1 X191.879 Y95.111 E109.56525
G1 X192.065 Y96.241 E109.60334
G1 X192.1 Y152.183 E111.46397
G1 X191.824 Y153.307 E111.50247
G1 X191.199 Y154.513 E111.54765
G1 X190.284 Y155.366 E111.58925
G1 X189.089 Y156.079 E111.63554
G1 X187.897 Y156.27 E111.67569
G1 X187.049 Y156.276 E111.70389
G1 X187.31 Y156.713 E111.72082
G1 X187.496 Y157.841 E111.75885
G1 X187.531 Y203.783 E113.28689
G1 X187.255 Y204.907 E113.32538
G1 X186.63 Y206.113 E113.37056
G1 X185.715 Y206.966 E113.41217
G1 X184.52 Y207.679 E113.45845
G1 X183.39 Y207.865 E113.49654
G1 X112.448 Y207.9 E115.85608
G1 X111.324 Y207.624 E115.89457
G1 X110.118 Y206.999 E115.93975
G1 X109.265 Y206.084 E115.98136
G1 X108.552 Y204.889 E116.02764
G1 X108.366 Y203.759 E116.06573
G1 X108.331 Y157.817 E117.59377
G1 X108.607 Y156.693 E117.63226
G1 X109.231 Y155.488 E117.6774
G1 X109.52 Y155.22 E117.69051
G1 X108.834 Y154.484 E117.72397
G1 X108.121 Y153.289 E117.77025
G1 X107.935 Y152.159 E117.80834
G1 X107.9 Y96.217 E119.66898
G1 X108.176 Y95.093 E119.70748
G1 X108.801 Y93.887 E119.75265
G0 F6000 X109.123 Y94.134
G1 F1200 X109.958 Y93.356 E119.79061
G1 X111.051 Y92.704 E119.83294
G1 X112.106 Y92.53 E119.86851
G1 X187.936 Y92.5 E122.39062
G1 X188.965 Y92.753 E122.42587
G1 X190.066 Y93.323 E122.4671
G1 X190.844 Y94.158 E122.50506
G1 X191.496 Y95.251 E122.54739
G1 X191.67 Y96.306 E122.58296
G1 X191.7 Y152.136 E124.43987
G1 X191.447 Y153.165 E124.47511
G1 X190.877 Y154.266 E124.51635
G1 X190.042 Y155.044 E124.55431
G1 X188.949 Y155.696 E124.59664
G1 X187.894 Y155.87 E124.6322
G1 X186.348 Y155.881 E124.68362
G1 X186.927 Y156.851 E124.7212
G1 X187.101 Y157.906 E124.75676
G1 X187.131 Y203.736 E126.28107
G1 X186.878 Y204.765 E126.31632
G1 X186.308 Y205.866 E126.35755
G1 X185.473 Y206.644 E126.39551
G1 X184.38 Y207.296 E126.43784
G1 X183.325 Y207.47 E126.4734
G1 X112.495 Y207.5 E128.82922
G1 X111.466 Y207.247 E128.86446
G1 X110.365 Y206.677 E128.9057
G1 X109.587 Y205.842 E128.94366
G1 X108.935 Y204.749 E128.98599
G1 X108.761 Y203.694 E129.02155
G1 X108.731 Y157.864 E130.54586
G1 X108.984 Y156.835 E130.58111
G1 X109.554 Y155.734 E130.62234
G1 X110.143 Y155.186 E130.6491
G1 X109.888 Y155.028 E130.65908
G1 X109.156 Y154.242 E130.6948
G1 X108.504 Y153.149 E130.73713
G1 X108.33 Y152.094 E130.7727
G1 X108.3 Y96.264 E132.62961
G1 X108.553 Y95.235 E132.66485
G1 X109.123 Y94.134 E132.70609
G0 F6000 X109.445 Y94.381
G1 F1200 X110.2 Y93.678 E132.7404
G1 X111.191 Y93.087 E132.77878
G1 X112.171 Y92.925 E132.81182
G1 X187.89 Y92.9 E135.33024
G1 X188.822 Y93.129 E135.36216
G1 X189.819 Y93.645 E135.3995
G1 X190.522 Y94.4 E135.43381
G1 X191.113 Y95.391 E135.47219
G1 X191.275 Y96.371 E135.50522
G1 X191.3 Y152.09 E137.35845
G1 X191.071 Y153.022 E137.39037
G1 X190.555 Y154.019 E137.42771
G1 X189.8 Y154.722 E137.46202
G1 X188.809 Y155.313 E137.50039
G1 X187.829 Y155.475 E137.53343
G1 X185.473 Y155.484 E137.61179
G1 X185.953 Y156 E137.63523
G1 X186.544 Y156.991 E137.67361
G1 X186.706 Y157.971 E137.70665
G1 X186.731 Y203.69 E139.22727
G1 X186.502 Y204.622 E139.25919
G1 X185.986 Y205.619 E139.29653
G1 X185.231 Y206.322 E139.33084
G1 X184.24 Y206.913 E139.36921
G1 X183.26 Y207.075 E139.40225
G1 X112.541 Y207.1 E141.75438
G1 X111.609 Y206.871 E141.7863
G1 X110.612 Y206.355 E141.82363
G1 X109.909 Y205.6 E141.85795
G1 X109.318 Y204.609 E141.89632
G1 X109.156 Y203.629 E141.92936
G1 X109.131 Y157.91 E143.44998
G1 X109.36 Y156.978 E143.4819
G1 X109.876 Y155.981 E143.51924
G1 X110.631 Y155.278 E143.55355
G1 X110.891 Y155.123 E143.56362
G1 X110.181 Y154.755 E143.59022
G1 X109.478 Y154 E143.62453
G1 X108.887 Y153.009 E143.66291
G1 X108.725 Y152.029 E143.69594
G1 X108.7 Y96.31 E145.54917
G1 X108.929 Y95.378 E145.58109
G1 X109.445 Y94.381 E145.61842
G0 F6000 X109.768 Y94.626
G1 F1200 X110.439 Y94.002 E145.6489
G1 X111.331 Y93.47 E145.68344
G1 X112.236 Y93.32 E145.71396
G1 X187.844 Y93.3 E148.22869
G1 X188.679 Y93.505 E148.25728
G1 X189.574 Y93.968 E148.2908
G1 X190.198 Y94.639 E148.32128
G1 X190.73 Y95.531 E148.35582
G1 X190.88 Y96.436 E148.38633
G1 X190.9 Y152.044 E150.23586
G1 X190.695 Y152.879 E150.26446
G1 X190.232 Y153.774 E150.29797
G1 X189.561 Y154.398 E150.32845
G1 X188.669 Y154.93 E150.36299
G1 X187.764 Y155.08 E150.3935
G1 X184.074 Y155.086 E150.51623
G1 X185.005 Y155.568 E150.5511
G1 X185.629 Y156.239 E150.58158
G1 X186.161 Y157.131 E150.61612
G1 X186.311 Y158.036 E150.64664
G1 X186.331 Y203.644 E152.16356
G1 X186.126 Y204.479 E152.19216
G1 X185.663 Y205.374 E152.22568
G1 X184.992 Y205.998 E152.25615
G1 X184.1 Y206.53 E152.2907
G1 X183.195 Y206.68 E152.32121
G1 X112.587 Y206.7 E154.66964
G1 X111.752 Y206.495 E154.69824
G1 X110.857 Y206.032 E154.73175
G1 X110.233 Y205.361 E154.76223
G1 X109.701 Y204.469 E154.79677
G1 X109.551 Y203.564 E154.82728
G1 X109.531 Y157.956 E156.34421
G1 X109.736 Y157.121 E156.37281
G1 X110.199 Y156.226 E156.40632
G1 X110.87 Y155.602 E156.4368
G1 X111.697 Y155.109 E156.46882
G1 X111.925 Y155.043 E156.47672
G1 X111.321 Y154.895 E156.4974
G1 X110.426 Y154.432 E156.53092
G1 X109.802 Y153.761 E156.56139
G1 X109.27 Y152.869 E156.59594
G1 X109.12 Y151.964 E156.62645
G1 X109.1 Y96.356 E158.47598
G1 X109.305 Y95.521 E158.50457
G1 X109.768 Y94.626 E158.53809
G0 F6000 X110.091 Y94.871
G1 F1200 X110.678 Y94.326 E158.56473
G1 X111.471 Y93.853 E158.59544
G1 X112.302 Y93.715 E158.62346
G1 X187.798 Y93.7 E161.13447
G1 X188.536 Y93.881 E161.15974
G1 X189.329 Y94.291 E161.18943
G1 X189.874 Y94.878 E161.21607
G1 X190.347 Y95.671 E161.24678
G1 X190.485 Y96.502 E161.2748
G1 X190.5 Y151.998 E163.12061
G1 X190.319 Y152.736 E163.14588
G1 X189.909 Y153.529 E163.17557
G1 X189.322 Y154.074 E163.20221
G1 X188.529 Y154.547 E163.23292
G1 X187.698 Y154.685 E163.26094
G1 X112.202 Y154.7 E165.77195
G1 X111.464 Y154.519 E165.79722
G1 X110.671 Y154.109 E165.82691
G1 X110.126 Y153.522 E165.85355
G1 X109.653 Y152.729 E165.88427
G1 X109.515 Y151.898 E165.91228
G1 X109.5 Y96.402 E167.75809
G1 X109.681 Y95.664 E167.78336
G1 X110.091 Y94.871 E167.81305
