;FLAVOR:Marlin
;TIME:15489
;Filament used: 12.4421m
;Layer height: 0.2
;MINX:72.2
;MINY:92.2
;MINZ:0.2
;MAXX:227.8
;MAXY:207.8
;MAXZ:5.4
;Generated with Cura_SteamEngine 5.4.0
M140 S50
M105
M190 S50
M104 S200
M105
M109 S200
M82 ;absolute extrusion mode
M201 X500.00 Y500.00 Z100.00 E5000.00 ;Setup machine max acceleration
M203 X500.00 Y500.00 Z10.00 E50.00 ;Setup machine max feedrate
M204 P500.00 R1000.00 T500.00 ;Setup Print/Retract/Travel acceleration
M205 X8.00 Y8.00 Z0.40 E5.00 ;Setup Jerk
M220 S100 ;Reset Feedrate
M221 S100 ;Reset Flowrate

G28 ;Home

G92 E0 ;Reset Extruder
G1 Z2.0 F3000 ;Move Z Axis up
G1 X10.1 Y20 Z0.28 F5000.0 ;Move to start position
G1 X10.1 Y200.0 Z0.28 F1500.0 E15 ;Draw the first line
G1 X10.4 Y200.0 Z0.28 F5000.0 ;Move to side a little
G1 X10.4 Y20 Z0.28 F1500.0 E30 ;Draw the second line
G92 E0 ;Reset Extruder
G1 Z2.0 F3000 ;Move Z Axis up

G92 E0
G92 E0
G1 F2700 E-5
;LAYER_COUNT:27
;LAYER:0
M107
G0 F6000 X75.28 Y93.764 Z0.2
;TYPE:SKIRT
G1 F2700 E0
G1 F1200 X77.303 Y92.557 E0.07835
G1 X79.021 Y92.275 E0.13626
G1 X220.853 Y92.2 E4.85361
G1 X222.749 Y92.666 E4.91855
G1 X224.777 Y93.719 E4.99455
G1 X226.236 Y95.28 E5.06562
G1 X227.443 Y97.303 E5.14397
G1 X227.725 Y99.021 E5.20187
G1 X227.8 Y200.853 E8.58882
G1 X227.334 Y202.749 E8.65376
G1 X226.281 Y204.777 E8.72976
G1 X224.72 Y206.236 E8.80083
G1 X222.697 Y207.443 E8.87918
G1 X220.979 Y207.725 E8.93708
G1 X79.147 Y207.8 E13.65443
G1 X77.251 Y207.334 E13.71937
G1 X75.223 Y206.281 E13.79537
G1 X73.764 Y204.72 E13.86644
G1 X72.557 Y202.697 E13.94479
G1 X72.275 Y200.979 E14.0027
G1 X72.2 Y99.147 E17.38964
G1 X72.666 Y97.251 E17.45458
G1 X73.719 Y95.223 E17.53058
G1 X75.28 Y93.764 E17.60165
G0 F6000 X75.519 Y94.088
G1 F1200 X77.443 Y92.94 E17.67617
G1 X79.086 Y92.67 E17.73155
G1 X220.807 Y92.6 E22.44521
G1 X222.606 Y93.042 E22.50682
G1 X224.532 Y94.042 E22.579
G1 X225.912 Y95.519 E22.64623
G1 X227.06 Y97.443 E22.72075
G1 X227.33 Y99.086 E22.77613
G1 X227.4 Y200.807 E26.15939
G1 X226.958 Y202.606 E26.221
G1 X225.958 Y204.532 E26.29318
G1 X224.481 Y205.912 E26.36041
G1 X222.557 Y207.06 E26.43493
G1 X220.914 Y207.33 E26.49031
G1 X79.193 Y207.4 E31.20397
G1 X77.394 Y206.958 E31.26558
G1 X75.468 Y205.958 E31.33776
G1 X74.088 Y204.481 E31.40499
G1 X72.94 Y202.557 E31.47951
G1 X72.67 Y200.914 E31.53489
G1 X72.6 Y99.193 E34.91814
G1 X73.042 Y97.394 E34.97976
G1 X74.042 Y95.468 E35.05194
G1 X75.519 Y94.088 E35.11917
G0 F6000 X75.761 Y94.409
G1 F1200 X77.581 Y93.323 E35.18966
G1 X79.151 Y93.065 E35.24258
G1 X220.76 Y93 E39.95251
G1 X222.464 Y93.419 E40.01088
G1 X224.287 Y94.365 E40.07919
G1 X225.591 Y95.761 E40.14272
G1 X226.677 Y97.581 E40.21322
G1 X226.935 Y99.151 E40.26613
G1 X227 Y200.76 E43.64566
G1 X226.581 Y202.464 E43.70403
G1 X225.635 Y204.287 E43.77234
G1 X224.239 Y205.591 E43.83588
G1 X222.419 Y206.677 E43.90637
G1 X220.849 Y206.935 E43.95929
G1 X79.24 Y207 E48.66922
G1 X77.536 Y206.581 E48.72758
G1 X75.713 Y205.635 E48.79589
G1 X74.409 Y204.239 E48.85943
G1 X73.323 Y202.419 E48.92992
G1 X73.065 Y200.849 E48.98284
G1 X73 Y99.24 E52.36237
G1 X73.419 Y97.536 E52.42073
G1 X74.365 Y95.713 E52.48905
G1 X75.761 Y94.409 E52.55258
G0 F6000 X76.003 Y94.73
G1 F1200 X77.719 Y93.706 E52.61905
G1 X79.216 Y93.46 E52.6695
G1 X220.714 Y93.4 E57.37575
G1 X222.321 Y93.795 E57.43079
G1 X224.042 Y94.688 E57.49528
G1 X225.27 Y96.003 E57.55512
G1 X226.294 Y97.719 E57.62158
G1 X226.54 Y99.216 E57.67204
G1 X226.6 Y200.714 E61.04788
G1 X226.205 Y202.321 E61.10292
G1 X225.312 Y204.042 E61.16741
G1 X223.997 Y205.27 E61.22725
G1 X222.281 Y206.294 E61.29371
G1 X220.784 Y206.54 E61.34417
G1 X79.286 Y206.6 E66.05041
G1 X77.679 Y206.205 E66.10545
G1 X75.958 Y205.312 E66.16994
G1 X74.73 Y203.997 E66.22978
G1 X73.706 Y202.281 E66.29625
G1 X73.46 Y200.784 E66.34671
G1 X73.4 Y99.286 E69.72254
G1 X73.795 Y97.679 E69.77758
G1 X74.688 Y95.958 E69.84207
G1 X76.003 Y94.73 E69.90191
G0 F6000 X76.245 Y95.051
G1 F1200 X77.857 Y94.089 E69.96435
G1 X79.281 Y93.855 E70.01235
G1 X220.668 Y93.8 E74.7149
G1 X222.178 Y94.171 E74.76662
G1 X223.797 Y95.011 E74.82728
G1 X224.949 Y96.245 E74.88343
G1 X225.911 Y97.857 E74.94586
G1 X226.145 Y99.281 E74.99386
G1 X226.2 Y200.668 E78.36601
G1 X225.829 Y202.178 E78.41772
G1 X224.989 Y203.797 E78.47839
G1 X223.755 Y204.949 E78.53454
G1 X222.143 Y205.911 E78.59697
G1 X220.719 Y206.145 E78.64497
G1 X79.332 Y206.2 E83.34752
G1 X77.822 Y205.829 E83.39924
G1 X76.203 Y204.989 E83.4599
G1 X75.051 Y203.755 E83.51605
G1 X74.089 Y202.143 E83.57849
G1 X73.855 Y200.719 E83.62649
G1 X73.8 Y99.332 E86.99863
G1 X74.171 Y97.822 E87.05035
G1 X75.011 Y96.203 E87.11101
G1 X76.245 Y95.051 E87.16716
G0 F6000 X76.487 Y95.372
G1 F1200 X77.995 Y94.472 E87.22557
G1 X79.346 Y94.25 E87.27111
G1 X220.621 Y94.2 E91.96993
G1 X222.036 Y94.548 E92.0184
G1 X223.552 Y95.334 E92.0752
G1 X224.628 Y96.487 E92.12765
G1 X225.528 Y97.995 E92.18606
G1 X225.75 Y99.346 E92.2316
G1 X225.8 Y200.621 E95.60002
G1 X225.452 Y202.036 E95.64848
G1 X224.666 Y203.552 E95.70528
G1 X223.513 Y204.628 E95.75773
G1 X222.005 Y205.528 E95.81614
G1 X220.654 Y205.75 E95.86168
G1 X79.379 Y205.8 E100.56051
G1 X77.964 Y205.452 E100.60897
G1 X76.448 Y204.666 E100.66577
G1 X75.372 Y203.513 E100.71822
G1 X74.472 Y202.005 E100.77663
G1 X74.25 Y200.654 E100.82217
G1 X74.2 Y99.379 E104.19059
G1 X74.548 Y97.964 E104.23906
G1 X75.334 Y96.448 E104.29585
G1 X76.487 Y95.372 E104.34831
G0 F6000 X76.729 Y95.693
G1 F1200 X78.133 Y94.855 E104.40269
G1 X79.411 Y94.645 E104.44576
G1 X220.575 Y94.6 E109.1409
G1 X221.893 Y94.924 E109.18604
G1 X223.307 Y95.657 E109.23901
G1 X224.307 Y96.729 E109.28777
G1 X225.145 Y98.133 E109.34216
G1 X225.355 Y99.411 E109.38523
G1 X225.4 Y200.575 E112.74996
G1 X225.076 Y201.893 E112.7951
G1 X224.343 Y203.307 E112.84808
G1 X223.271 Y204.307 E112.89684
G1 X221.867 Y205.145 E112.95122
G1 X220.589 Y205.355 E112.9943
G1 X79.425 Y205.4 E117.68943
G1 X78.107 Y205.076 E117.73457
G1 X76.693 Y204.343 E117.78755
G1 X75.693 Y203.271 E117.8363
G1 X74.855 Y201.867 E117.89069
G1 X74.645 Y200.589 E117.93376
G1 X74.6 Y99.425 E121.29849
G1 X74.924 Y98.107 E121.34363
G1 X75.657 Y96.693 E121.39661
G1 X76.729 Y95.693 E121.44537
G0 F6000 X76.974 Y96.012
G1 F1200 X78.271 Y95.238 E121.4956
G1 X79.476 Y95.04 E121.53622
G1 X220.529 Y95 E126.22766
G1 X221.75 Y95.3 E126.26948
G1 X223.06 Y95.979 E126.31856
G1 X223.988 Y96.974 E126.36381
G1 X224.762 Y98.271 E126.41404
G1 X224.96 Y99.476 E126.45466
G1 X225 Y200.529 E129.8157
G1 X224.7 Y201.75 E129.85752
G1 X224.021 Y203.06 E129.90659
G1 X223.026 Y203.988 E129.95185
G1 X221.729 Y204.762 E130.00208
G1 X220.524 Y204.96 E130.0427
G1 X79.471 Y205 E134.73414
G1 X78.25 Y204.7 E134.77596
G1 X76.94 Y204.021 E134.82503
G1 X76.012 Y203.026 E134.87029
G1 X75.238 Y201.729 E134.92052
G1 X75.04 Y200.524 E134.96114
G1 X75 Y99.471 E138.32218
G1 X75.3 Y98.25 E138.36399
G1 X75.979 Y96.94 E138.41307
G1 X76.974 Y96.012 E138.45832
G0 F6000 X77.216 Y96.334
G1 F1200 X78.411 Y95.621 E138.50461
G1 X79.541 Y95.435 E138.5427
G1 X220.483 Y95.4 E143.23045
G1 X221.607 Y95.676 E143.26894
G1 X222.813 Y96.301 E143.31412
G1 X223.666 Y97.216 E143.35573
G1 X224.379 Y98.411 E143.40201
G1 X224.565 Y99.541 E143.4401
G1 X224.6 Y200.483 E146.79744
G1 X224.324 Y201.607 E146.83594
G1 X223.699 Y202.813 E146.88112
G1 X222.784 Y203.666 E146.92272
G1 X221.589 Y204.379 E146.969
G1 X220.459 Y204.565 E147.00709
G1 X79.517 Y204.6 E151.69484
G1 X78.393 Y204.324 E151.73334
G1 X77.187 Y203.699 E151.77852
G1 X76.334 Y202.784 E151.82012
G1 X75.621 Y201.589 E151.86641
G1 X75.435 Y200.459 E151.9045
G1 X75.4 Y99.517 E155.26184
G1 X75.676 Y98.393 E155.30034
G1 X76.301 Y97.187 E155.34551
G1 X77.216 Y96.334 E155.38712
G0 F6000 X77.458 Y96.656
G1 F1200 X78.551 Y96.004 E155.42945
G1 X79.606 Y95.83 E155.46501
G1 X220.436 Y95.8 E160.14904
G1 X221.465 Y96.053 E160.18428
G1 X222.566 Y96.623 E160.22552
G1 X223.344 Y97.458 E160.26348
G1 X223.996 Y98.551 E160.30581
G1 X224.17 Y99.606 E160.34137
G1 X224.2 Y200.436 E163.69499
G1 X223.947 Y201.465 E163.73024
G1 X223.377 Y202.566 E163.77147
G1 X222.542 Y203.344 E163.80943
G1 X221.449 Y203.996 E163.85176
G1 X220.394 Y204.17 E163.88732
G1 X79.564 Y204.2 E168.57135
G1 X78.535 Y203.947 E168.60659
G1 X77.434 Y203.377 E168.64783
G1 X76.656 Y202.542 E168.68579
G1 X76.004 Y201.449 E168.72812
G1 X75.83 Y200.394 E168.76368
G1 X75.8 Y99.564 E172.1173
G1 X76.053 Y98.535 E172.15254
G1 X76.623 Y97.434 E172.19378
G1 X77.458 Y96.656 E172.23174
G0 F6000 X77.7 Y96.978
G1 F1200 X78.691 Y96.387 E172.27012
G1 X79.671 Y96.225 E172.30315
G1 X220.39 Y96.2 E176.98349
G1 X221.322 Y96.429 E177.01541
G1 X222.319 Y96.945 E177.05275
G1 X223.022 Y97.7 E177.08706
G1 X223.613 Y98.691 E177.12543
G1 X223.775 Y99.671 E177.15847
G1 X223.8 Y200.39 E180.5084
G1 X223.571 Y201.322 E180.54032
G1 X223.055 Y202.319 E180.57766
G1 X222.3 Y203.022 E180.61197
G1 X221.309 Y203.613 E180.65035
G1 X220.329 Y203.775 E180.68338
G1 X79.61 Y203.8 E185.36372
G1 X78.678 Y203.571 E185.39564
G1 X77.681 Y203.055 E185.43298
G1 X76.978 Y202.3 E185.46729
G1 X76.387 Y201.309 E185.50566
G1 X76.225 Y200.329 E185.5387
G1 X76.2 Y99.61 E188.88863
G1 X76.429 Y98.678 E188.92055
G1 X76.945 Y97.681 E188.95789
G1 X77.7 Y96.978 E188.9922
G0 F6000 X77.939 Y97.302
G1 F1200 X78.831 Y96.77 E189.02674
G1 X79.736 Y96.62 E189.05725
G1 X220.344 Y96.6 E193.7339
G1 X221.179 Y96.805 E193.76249
G1 X222.074 Y97.268 E193.79601
G1 X222.698 Y97.939 E193.82648
G1 X223.23 Y98.831 E193.86103
G1 X223.38 Y99.736 E193.89154
G1 X223.4 Y200.344 E197.23778
G1 X223.195 Y201.179 E197.26637
G1 X222.732 Y202.074 E197.29989
G1 X222.061 Y202.698 E197.33036
G1 X221.169 Y203.23 E197.36491
G1 X220.264 Y203.38 E197.39542
G1 X79.656 Y203.4 E202.07206
G1 X78.821 Y203.195 E202.10066
G1 X77.926 Y202.732 E202.13417
G1 X77.302 Y202.061 E202.16465
G1 X76.77 Y201.169 E202.19919
G1 X76.62 Y200.264 E202.2297
G1 X76.6 Y99.656 E205.57594
G1 X76.805 Y98.821 E205.60454
G1 X77.268 Y97.926 E205.63805
G1 X77.939 Y97.302 E205.66853
G0 F6000 X78.178 Y97.626
G1 F1200 X78.971 Y97.153 E205.69924
G1 X79.802 Y97.015 E205.72726
G1 X220.298 Y97 E210.40017
G1 X221.036 Y97.181 E210.42545
G1 X221.829 Y97.591 E210.45514
G1 X222.374 Y98.178 E210.48178
G1 X222.847 Y98.971 E210.51249
G1 X222.985 Y99.802 E210.54051
G1 X223 Y200.298 E213.88302
G1 X222.819 Y201.036 E213.90829
G1 X222.409 Y201.829 E213.93798
G1 X221.822 Y202.374 E213.96462
G1 X221.029 Y202.847 E213.99534
G1 X220.198 Y202.985 E214.02335
G1 X79.702 Y203 E218.69627
G1 X78.964 Y202.819 E218.72154
G1 X78.171 Y202.409 E218.75123
G1 X77.626 Y201.822 E218.77788
G1 X77.153 Y201.029 E218.80859
G1 X77.015 Y200.198 E218.8366
G1 X77 Y99.702 E222.17911
G1 X77.181 Y98.964 E222.20439
G1 X77.591 Y98.171 E222.23408
G1 X78.178 Y97.626 E222.26072
G0 F6000 X78.417 Y97.95
G1 F1200 X79.111 Y97.536 E222.2876
G1 X79.868 Y97.41 E222.31312
G1 X220.248 Y97.4 E226.98218
G1 X220.897 Y97.559 E227.00441
G1 X221.584 Y97.914 E227.03013
G1 X222.05 Y98.417 E227.05293
G1 X222.464 Y99.111 E227.07981
G1 X222.59 Y99.868 E227.10533
G1 X222.6 Y200.248 E230.44399
G1 X222.441 Y200.897 E230.46621
G1 X222.086 Y201.584 E230.49193
G1 X221.583 Y202.05 E230.51474
G1 X220.889 Y202.464 E230.54161
G1 X220.132 Y202.59 E230.56714
G1 X79.752 Y202.6 E235.2362
G1 X79.103 Y202.441 E235.25842
G1 X78.416 Y202.086 E235.28414
G1 X77.95 Y201.583 E235.30695
G1 X77.536 Y200.889 E235.33382
G1 X77.41 Y200.132 E235.35935
G1 X77.4 Y99.752 E238.698
G1 X77.559 Y99.103 E238.72022
G1 X77.914 Y98.416 E238.74594
G1 X78.417 Y97.95 E238.76875
G0 F6000 X78.656 Y98.274
G1 F1200 X79.251 Y97.919 E238.7918
G1 X79.934 Y97.805 E238.81483
G1 X220.198 Y97.8 E243.48003
G1 X220.758 Y97.937 E243.4992
G1 X221.338 Y98.237 E243.52092
G1 X221.726 Y98.656 E243.53991
G1 X222.081 Y99.251 E243.56296
G1 X222.195 Y99.934 E243.58599
G1 X222.2 Y200.198 E246.92078
G1 X222.063 Y200.758 E246.93996
G1 X221.763 Y201.338 E246.96168
G1 X221.344 Y201.726 E246.98067
G1 X220.749 Y202.081 E247.00371
G1 X220.066 Y202.195 E247.02674
G1 X79.802 Y202.2 E251.69194
G1 X79.242 Y202.063 E251.71112
G1 X78.662 Y201.763 E251.73284
G1 X78.274 Y201.344 E251.75183
G1 X77.919 Y200.749 E251.77488
G1 X77.805 Y200.066 E251.79791
G1 X77.8 Y99.802 E255.1327
G1 X77.937 Y99.242 E255.15188
G1 X78.237 Y98.662 E255.17359
G1 X78.656 Y98.274 E255.19259
G0 F6000 X78.898 Y98.595
G1 F1200 X79.389 Y98.302 E255.21161
G1 X80 Y98.2 E255.23221
G1 X220.148 Y98.2 E259.89355
G1 X220.619 Y98.315 E259.90968
G1 X221.092 Y98.56 E259.92739
G1 X221.405 Y98.898 E259.94271
G1 X221.698 Y99.389 E259.96173
G1 X221.8 Y100 E259.98234
G1 X221.8 Y200.148 E263.31327
G1 X221.685 Y200.619 E263.3294
G1 X221.44 Y201.092 E263.34711
G1 X221.102 Y201.405 E263.36244
G1 X220.611 Y201.698 E263.38145
G1 X220 Y201.8 E263.40206
G1 X79.852 Y201.8 E268.0634
G1 X79.381 Y201.685 E268.07952
G1 X78.908 Y201.44 E268.09724
G1 X78.595 Y201.102 E268.11256
G1 X78.302 Y200.611 E268.13158
G1 X78.2 Y200 E268.15218
G1 X78.2 Y99.852 E271.48312
G1 X78.315 Y99.381 E271.49925
G1 X78.56 Y98.908 E271.51696
G1 X78.898 Y98.595 E271.53228
G0 F6000 X79.14 Y98.916
G1 F1200 X79.527 Y98.685 E271.54727
G1 X80 Y98.6 E271.56326
G1 X220.098 Y98.6 E276.22294
G1 X220.48 Y98.693 E276.23601
G1 X220.846 Y98.883 E276.24973
G1 X221.084 Y99.14 E276.26138
G1 X221.315 Y99.527 E276.27637
G1 X221.4 Y100 E276.29235
G1 X221.4 Y200.098 E279.62163
G1 X221.307 Y200.48 E279.6347
G1 X221.117 Y200.846 E279.64842
G1 X220.86 Y201.084 E279.66007
G1 X220.473 Y201.315 E279.67506
G1 X220 Y201.4 E279.69104
G1 X79.902 Y201.4 E284.35072
G1 X79.52 Y201.307 E284.3638
G1 X79.154 Y201.117 E284.37751
G1 X78.916 Y200.86 E284.38916
G1 X78.685 Y200.473 E284.40415
G1 X78.6 Y200 E284.42014
G1 X78.6 Y99.902 E287.74941
G1 X78.693 Y99.52 E287.76249
G1 X78.883 Y99.154 E287.7762
G1 X79.14 Y98.916 E287.78785
G0 F6000 X79.345 Y99.26
G1 F1200 X79.672 Y99.065 E287.80052
G1 X80 Y99 E287.81164
G1 X220.049 Y99 E292.46969
G1 X220.338 Y99.07 E292.47958
G1 X220.601 Y99.207 E292.48944
G1 X220.74 Y99.345 E292.49596
G1 X220.935 Y99.672 E292.50862
G1 X221 Y100 E292.51974
G1 X221 Y200.049 E295.84738
G1 X220.93 Y200.338 E295.85727
G1 X220.793 Y200.601 E295.86714
G1 X220.655 Y200.74 E295.87365
G1 X220.328 Y200.935 E295.88631
G1 X220 Y201 E295.89744
G1 X79.951 Y201 E300.55548
G1 X79.662 Y200.93 E300.56537
G1 X79.399 Y200.793 E300.57524
G1 X79.26 Y200.655 E300.58175
G1 X79.065 Y200.328 E300.59441
G1 X79 Y200 E300.60554
G1 X79 Y99.951 E303.93318
G1 X79.07 Y99.662 E303.94307
G1 X79.207 Y99.399 E303.95293
G1 X79.345 Y99.26 E303.95945
G0 F6000 X79.839 Y99.881
G1 F1200 X80 Y99.8 E303.96544
G1 X220 Y99.8 E308.62186
G1 X220.119 Y99.839 E308.62603
G1 X220.2 Y100 E308.63202
G1 X220.2 Y200 E311.95803
G1 X220.161 Y200.119 E311.9622
G1 X220 Y200.2 E311.96819
G1 X80 Y200.2 E316.62461
G1 X79.881 Y200.161 E316.62878
G1 X79.8 Y200 E316.63477
G1 X79.8 Y100 E319.96079
G1 X79.839 Y99.881 E319.96495
G0 F6000 X79.55 Y99.604
G1 F1200 X79.82 Y99.443 E319.97541
G1 X80 Y99.4 E319.98156
G1 X220 Y99.4 E324.63798
G1 X220.244 Y99.459 E324.64633
G1 X220.396 Y99.55 E324.65222
G1 X220.557 Y99.82 E324.66268
G1 X220.6 Y100 E324.66883
G1 X220.6 Y200 E327.99485
G1 X220.541 Y200.244 E328.0032
G1 X220.45 Y200.396 E328.00909
G1 X220.18 Y200.557 E328.01954
G1 X220 Y200.6 E328.0257
G1 X80 Y200.6 E332.68212
G1 X79.756 Y200.541 E332.69047
G1 X79.604 Y200.45 E332.69636
G1 X79.443 Y200.18 E332.70681
G1 X79.4 Y200 E332.71297
G1 X79.4 Y100 E336.03898
G1 X79.459 Y99.756 E336.04733
G1 X79.55 Y99.604 E336.05323
G1 F2700 E331.05323
;MESH:Tampa.stl
G0 F6000 X80.414 Y100.414
G0 X84.37 Y100.613
;TYPE:WALL-INNER
G1 F2700 E336.05323
G1 F1206 X85.123 Y100.585 E336.07816
G1 X85.876 Y100.613 E336.1031
G1 F2700 E331.1031
G0 F6000 X87.102 Y101.159
G0 X87.659 Y101.485
G0 X88.125 Y101.891
G0 X88.482 Y102.37
G0 X88.709 Y102.905
G0 X88.788 Y103.471
G0 X88.709 Y104.037
G0 X88.482 Y104.571
G0 X88.125 Y105.05
G0 X87.659 Y105.456
G0 X85.838 Y106.488
G0 X82.396 Y105.718
G0 X80.928 Y103.664
G0 X80.827 Y104.306
G0 X80.762 Y104.785
G0 X80.761 Y194.839
G0 X80.826 Y195.316
G0 X80.929 Y195.959
G0 X83.005 Y193.55
G0 X86.58 Y193.3
G0 X88.125 Y194.573
G0 X88.482 Y195.052
G0 X88.709 Y195.587
